X:91
T:Araber tanz
O:klezmer
M:4/4
L:1/8
Q:1/4=120
K:Dm
V:1
A2 |"A" ^cd e2 e2 e2 |"Dm" f6 ed |"A" ^cd e2 "Bb" fe de |
"A" d^c3 z2 A2 |"A" ^cd e2 e2 e2 |"Gm" (g4 g)f ed |"A" ^cd e2 "Bb" fe de |
"A" d^c3 z4 |Aa2 ^ga2 e2 |"Dm" f3 ga2 g/f/e/d/ |"A" ^c(d3 d)^c B^c |
BA3 zA  (3fed   |:
M:8/8
"A" ^c8 |"Dm" d8 |"A" ^cd e(^c ^c)A "Gm" BG |"A" AB ^cd ea ed |
^c8 |"Dm" d4 zA  (3fed |"A" ^cd e(^c ^c)A "Gm" BG |1 "A" A4 zA  (3fed :|2
A4 za "Gm" g/f/e/d/ || |:"A" (^cd e(^c ^c)A "Gm" B/A/B/G/ |"A" AB ^cd ea "Gm" g/f/e/d/ |"A" ^cd e(^c ^c)A "Gm" B/A/B/G/ |
|1 "A" AA2 EA EA2 :|2 "A" A6 ||





